assets/icons/24px/stroke/add-24px.svg

<svg width="24" height="24" viewBox="0 0 24 24" fill="none" xmlns="http://www.w3.org/2000/svg">
<path fill-rule="evenodd" clip-rule="evenodd" d="M12 3.00003C12.5523 3.00003 13 3.44774 13 4.00003L13 11L20 11C20.5523 11 21 11.4478 21 12C21 12.5523 20.5523 13 20 13L13 13V20.0001C13 20.5524 12.5523 21.0001 12 21.0001C11.4477 21.0001 11 20.5524 11 20.0001V13L3.99998 13C3.4477 13 2.99998 12.5523 2.99998 12C2.99998 11.4478 3.4477 11 3.99998 11L11 11L11 4.00003C11 3.44774 11.4477 3.00003 12 3.00003Z" fill="white"/>
</svg>

<svg width="24" height="24" fill="none" xmlns="http://www.w3.org/2000/svg"><path fill-rule="evenodd" clip-rule="evenodd" d="M12 3a1 1 0 0 1 1 1v7h7a1 1 0 0 1 0 2h-7v7a1 1 0 1 1-2 0v-7H4a1 1 0 1 1 0-2h7V4a1 1 0 0 1 1-1z" fill="#fff"/></svg>
